X:1
T:Title
%%score ( 1 2 ) ( 3 4 )
L:1/8
M:6/4
K:D
V:1 treble nm="Bright Piano"
V:2 treble 
V:3 bass nm="Bright Piano"
V:4 bass 
V:1
 z6 z4[Q:1/4=126] [FA]2 | [FA]4 [DF]2 [DF]4 [Fd]2 | [Fd]4 [FA]2 [FA]4 [DF]2 | %3
 [CE]4 [DF]2 [EG]2 [Ac]2 [GB]2 | [GB]2 [FA]2 [EG]2 [DF]4 [FA]2 | [FA]4 [DF]2 [DF]4 [Fd]2 | %6
 [Fd]4 [FA]2 [FA]4 [=FB]2 | [Ec]4 [Ec]2 e2 d2 [Ec]2 |[M:5/4] [DB]2 [Ec]2 [DB]2 [CA]4 |[M:1/4] z2 | %10
[M:6/4] [CGA]2 [CGA]2 [CGA]2 [CGA]2 [CGA]2 [CGA]2 |[M:5/4] [DFA]2 [DFA]2 [DFA]2 [DFA]2 [DFA]2 | %12
[M:1/4] [Fd]2 |[M:6/4] [Ec]4 [Fd]2 [Ge]4 [GA]2 | [Fd]4 [Ge]2 [Af]4 [Fd]2 | %15
 [Gd]4 [Gc]2 e2 d2 [GB]2 | [FA]4 [DF]2 [FA]4 [FA]2 | [GB]2 [Ac]2 [Bd]2 [FA]4 [Gd]2 | %18
 [Fd]6 c2- [Fc-]2 [Gc]2 |[M:5/4] [Fd]2- [Fd]2- [Fd]6 |] %20
V:2
 x12 | x12 | x12 | x12 | x12 | x12 | x12 | z6 .E6 |[M:5/4] x10 |[M:1/4] x2 |[M:6/4] x12 | %11
[M:5/4] x10 |[M:1/4] x2 |[M:6/4] x12 | x12 | z6 .G6 | x12 | x12 | z6 .E6 |[M:5/4] x10 |] %20
V:3
 z6 z4 [D,D]2 | [D,D]4 [D,A,]2 [D,A,]4 [D,A,]2 | [D,A,]4 [D,D]2 [D,D]4 [D,A,]2 | %3
 [A,,A,]4 [A,,A,]2 [A,,A,]4 [A,,A,]2 | .A,6 z6 | [D,D]4 [D,A,]2 [D,A,]4 [D,A,]2 | %6
 [D,A,]4 [D,D]2 [D,D]4 [D,A,]2 | z6 .C6 |[M:5/4] [E,^G,]4 [E,G,]2 [A,,A,]4 |[M:1/4] A,2 | %10
[M:6/4] A,4 E,2 E,4 A,2 |[M:5/4] A,4 F,2 F,4 |[M:1/4] z2 |[M:6/4] A,,2 A,2 A,2 A,,2 A,2 A,2 | %14
 D,2 A,2 A,2 D,2 D2 [D,=C]2 | [G,B,]4 [G,^A,]2 [G,B,]4 [G,D]2 | [D,D]4 [D,A,]2 [D,D]4 [D,D]2 | %17
 [G,D]4 [G,D]2 [D,D]4 [E,B,]2 | A,6 [A,,A,]6 |[M:5/4] [D,A,]2- [D,A,]2- [D,A,]6 |] %20
V:4
 x12 | x12 | x12 | x12 | A,,2 B,,2 [C,A,]2 [D,A,]4 [D,D]2 | x12 | x12 | %7
 [E,A,]4 [E,A,]2 E,2- [E,B,]2 [E,A,]2 |[M:5/4] x10 |[M:1/4] x2 |[M:6/4] x12 |[M:5/4] x10 | %12
[M:1/4] x2 |[M:6/4] x12 | x12 | x12 | x12 | x12 | x12 |[M:5/4] x10 |] %20

